images/22882.svg

<?xml version="1.0" encoding="UTF-8"?>
<svg xmlns="http://www.w3.org/2000/svg" xmlns:xlink="http://www.w3.org/1999/xlink" width="300pt" height="300pt" viewBox="0 0 300 300" version="1.1">
<defs>
<g>
<symbol overflow="visible" id="glyph0-0">
<path style="stroke:none;" d="M 0.640625 2.296875 L 0.640625 -9.171875 L 7.140625 -9.171875 L 7.140625 2.296875 Z M 1.375 1.578125 L 6.421875 1.578125 L 6.421875 -8.4375 L 1.375 -8.4375 Z M 1.375 1.578125 "/>
</symbol>
<symbol overflow="visible" id="glyph0-1">
<path style="stroke:none;" d="M 8.375 -8.75 L 8.375 -7.390625 C 7.9375 -7.796875 7.472656 -8.097656 6.984375 -8.296875 C 6.503906 -8.492188 5.988281 -8.59375 5.4375 -8.59375 C 4.351562 -8.59375 3.519531 -8.257812 2.9375 -7.59375 C 2.363281 -6.9375 2.078125 -5.984375 2.078125 -4.734375 C 2.078125 -3.484375 2.363281 -2.523438 2.9375 -1.859375 C 3.519531 -1.203125 4.351562 -0.875 5.4375 -0.875 C 5.988281 -0.875 6.503906 -0.972656 6.984375 -1.171875 C 7.472656 -1.367188 7.9375 -1.664062 8.375 -2.0625 L 8.375 -0.734375 C 7.925781 -0.421875 7.453125 -0.1875 6.953125 -0.03125 C 6.453125 0.113281 5.921875 0.1875 5.359375 0.1875 C 3.921875 0.1875 2.789062 -0.25 1.96875 -1.125 C 1.144531 -2.007812 0.734375 -3.210938 0.734375 -4.734375 C 0.734375 -6.253906 1.144531 -7.453125 1.96875 -8.328125 C 2.789062 -9.210938 3.921875 -9.65625 5.359375 -9.65625 C 5.921875 -9.65625 6.453125 -9.578125 6.953125 -9.421875 C 7.460938 -9.273438 7.9375 -9.050781 8.375 -8.75 Z M 8.375 -8.75 "/>
</symbol>
<symbol overflow="visible" id="glyph0-2">
<path style="stroke:none;" d="M 1.21875 -9.875 L 2.390625 -9.875 L 2.390625 0 L 1.21875 0 Z M 1.21875 -9.875 "/>
</symbol>
<symbol overflow="visible" id="glyph0-3">
<path style="stroke:none;" d="M 5.125 -8.609375 C 4.1875 -8.609375 3.441406 -8.257812 2.890625 -7.5625 C 2.347656 -6.875 2.078125 -5.929688 2.078125 -4.734375 C 2.078125 -3.535156 2.347656 -2.585938 2.890625 -1.890625 C 3.441406 -1.203125 4.1875 -0.859375 5.125 -0.859375 C 6.050781 -0.859375 6.785156 -1.203125 7.328125 -1.890625 C 7.878906 -2.585938 8.15625 -3.535156 8.15625 -4.734375 C 8.15625 -5.929688 7.878906 -6.875 7.328125 -7.5625 C 6.785156 -8.257812 6.050781 -8.609375 5.125 -8.609375 Z M 5.125 -9.65625 C 6.445312 -9.65625 7.503906 -9.207031 8.296875 -8.3125 C 9.097656 -7.414062 9.5 -6.222656 9.5 -4.734375 C 9.5 -3.234375 9.097656 -2.035156 8.296875 -1.140625 C 7.503906 -0.253906 6.445312 0.1875 5.125 0.1875 C 3.789062 0.1875 2.722656 -0.253906 1.921875 -1.140625 C 1.128906 -2.035156 0.734375 -3.234375 0.734375 -4.734375 C 0.734375 -6.222656 1.128906 -7.414062 1.921875 -8.3125 C 2.722656 -9.207031 3.789062 -9.65625 5.125 -9.65625 Z M 5.125 -9.65625 "/>
</symbol>
<symbol overflow="visible" id="glyph0-4">
<path style="stroke:none;" d="M 6.953125 -9.171875 L 6.953125 -7.921875 C 6.472656 -8.148438 6.015625 -8.320312 5.578125 -8.4375 C 5.148438 -8.550781 4.734375 -8.609375 4.328125 -8.609375 C 3.628906 -8.609375 3.085938 -8.472656 2.703125 -8.203125 C 2.328125 -7.929688 2.140625 -7.546875 2.140625 -7.046875 C 2.140625 -6.628906 2.265625 -6.3125 2.515625 -6.09375 C 2.773438 -5.882812 3.253906 -5.710938 3.953125 -5.578125 L 4.734375 -5.421875 C 5.679688 -5.234375 6.382812 -4.910156 6.84375 -4.453125 C 7.300781 -3.992188 7.53125 -3.378906 7.53125 -2.609375 C 7.53125 -1.691406 7.222656 -0.992188 6.609375 -0.515625 C 5.992188 -0.046875 5.085938 0.1875 3.890625 0.1875 C 3.441406 0.1875 2.960938 0.132812 2.453125 0.03125 C 1.953125 -0.0703125 1.429688 -0.222656 0.890625 -0.421875 L 0.890625 -1.734375 C 1.410156 -1.441406 1.921875 -1.222656 2.421875 -1.078125 C 2.921875 -0.929688 3.410156 -0.859375 3.890625 -0.859375 C 4.628906 -0.859375 5.195312 -1 5.59375 -1.28125 C 5.988281 -1.570312 6.1875 -1.984375 6.1875 -2.515625 C 6.1875 -2.984375 6.039062 -3.347656 5.75 -3.609375 C 5.46875 -3.867188 5.003906 -4.066406 4.359375 -4.203125 L 3.578125 -4.359375 C 2.617188 -4.546875 1.925781 -4.84375 1.5 -5.25 C 1.070312 -5.65625 0.859375 -6.21875 0.859375 -6.9375 C 0.859375 -7.78125 1.148438 -8.441406 1.734375 -8.921875 C 2.328125 -9.410156 3.144531 -9.65625 4.1875 -9.65625 C 4.625 -9.65625 5.070312 -9.613281 5.53125 -9.53125 C 6 -9.445312 6.472656 -9.328125 6.953125 -9.171875 Z M 6.953125 -9.171875 "/>
</symbol>
<symbol overflow="visible" id="glyph0-5">
<path style="stroke:none;" d="M 1.28125 -9.484375 L 3 -9.484375 L 7.203125 -1.546875 L 7.203125 -9.484375 L 8.453125 -9.484375 L 8.453125 0 L 6.71875 0 L 2.515625 -7.921875 L 2.515625 0 L 1.28125 0 Z M 1.28125 -9.484375 "/>
</symbol>
<symbol overflow="visible" id="glyph0-6">
<path style="stroke:none;" d="M 4.453125 -3.578125 C 3.515625 -3.578125 2.863281 -3.46875 2.5 -3.25 C 2.132812 -3.03125 1.953125 -2.660156 1.953125 -2.140625 C 1.953125 -1.734375 2.085938 -1.40625 2.359375 -1.15625 C 2.628906 -0.914062 3 -0.796875 3.46875 -0.796875 C 4.113281 -0.796875 4.632812 -1.023438 5.03125 -1.484375 C 5.425781 -1.941406 5.625 -2.550781 5.625 -3.3125 L 5.625 -3.578125 Z M 6.78125 -4.0625 L 6.78125 0 L 5.625 0 L 5.625 -1.078125 C 5.351562 -0.648438 5.019531 -0.332031 4.625 -0.125 C 4.226562 0.0820312 3.738281 0.1875 3.15625 0.1875 C 2.425781 0.1875 1.847656 -0.015625 1.421875 -0.421875 C 0.992188 -0.835938 0.78125 -1.382812 0.78125 -2.0625 C 0.78125 -2.863281 1.046875 -3.46875 1.578125 -3.875 C 2.117188 -4.28125 2.921875 -4.484375 3.984375 -4.484375 L 5.625 -4.484375 L 5.625 -4.609375 C 5.625 -5.140625 5.445312 -5.550781 5.09375 -5.84375 C 4.738281 -6.144531 4.238281 -6.296875 3.59375 -6.296875 C 3.1875 -6.296875 2.789062 -6.242188 2.40625 -6.140625 C 2.019531 -6.046875 1.648438 -5.898438 1.296875 -5.703125 L 1.296875 -6.78125 C 1.722656 -6.945312 2.140625 -7.070312 2.546875 -7.15625 C 2.953125 -7.238281 3.34375 -7.28125 3.71875 -7.28125 C 4.75 -7.28125 5.515625 -7.015625 6.015625 -6.484375 C 6.523438 -5.953125 6.78125 -5.144531 6.78125 -4.0625 Z M 6.78125 -4.0625 "/>
</symbol>
<symbol overflow="visible" id="glyph1-0">
<path style="stroke:none;" d="M 0.546875 1.9375 L 0.546875 -7.75 L 6.046875 -7.75 L 6.046875 1.9375 Z M 1.171875 1.328125 L 5.4375 1.328125 L 5.4375 -7.140625 L 1.171875 -7.140625 Z M 1.171875 1.328125 "/>
</symbol>
<symbol overflow="visible" id="glyph1-1">
<path style="stroke:none;" d="M 0.53125 -3.453125 L 3.4375 -3.453125 L 3.4375 -2.578125 L 0.53125 -2.578125 Z M 0.53125 -3.453125 "/>
</symbol>
<symbol overflow="visible" id="glyph1-2">
<path style="stroke:none;" d="M 5.0625 -6.890625 L 5.0625 -3.90625 L 8.046875 -3.90625 L 8.046875 -2.984375 L 5.0625 -2.984375 L 5.0625 0 L 4.15625 0 L 4.15625 -2.984375 L 1.171875 -2.984375 L 1.171875 -3.90625 L 4.15625 -3.90625 L 4.15625 -6.890625 Z M 5.0625 -6.890625 "/>
</symbol>
</g>
</defs>
<g id="surface35561">
<rect x="0" y="0" width="300" height="300" style="fill:rgb(100%,100%,100%);fill-opacity:1;stroke:none;"/>
<path style="fill:none;stroke-width:1.2;stroke-linecap:butt;stroke-linejoin:miter;stroke:rgb(0%,0%,0%);stroke-opacity:1;stroke-miterlimit:10;" d="M 60.695312 179.332031 L 62.855469 146.203125 "/>
<path style="fill:none;stroke-width:1.2;stroke-linecap:butt;stroke-linejoin:miter;stroke:rgb(0%,0%,0%);stroke-opacity:1;stroke-miterlimit:10;" d="M 68.703125 176.527344 L 70.433594 150.027344 "/>
<path style="fill:none;stroke-width:1.2;stroke-linecap:butt;stroke-linejoin:miter;stroke:rgb(0%,0%,0%);stroke-opacity:1;stroke-miterlimit:10;" d="M 88.300781 197.765625 L 60.695312 179.332031 "/>
<path style="fill:none;stroke-width:1.2;stroke-linecap:butt;stroke-linejoin:miter;stroke:rgb(0%,0%,0%);stroke-opacity:1;stroke-miterlimit:10;" d="M 62.855469 146.203125 L 92.625 131.515625 "/>
<path style="fill:none;stroke-width:1.2;stroke-linecap:butt;stroke-linejoin:miter;stroke:rgb(0%,0%,0%);stroke-opacity:1;stroke-miterlimit:10;" d="M 62.855469 146.203125 L 49.054688 136.988281 "/>
<path style="fill:none;stroke-width:1.2;stroke-linecap:butt;stroke-linejoin:miter;stroke:rgb(0%,80%,0%);stroke-opacity:1;stroke-miterlimit:10;" d="M 49.054688 136.988281 L 35.25 127.769531 "/>
<path style="fill:none;stroke-width:1.2;stroke-linecap:butt;stroke-linejoin:miter;stroke:rgb(0%,0%,0%);stroke-opacity:1;stroke-miterlimit:10;" d="M 92.625 131.515625 L 120.230469 149.949219 "/>
<path style="fill:none;stroke-width:1.2;stroke-linecap:butt;stroke-linejoin:miter;stroke:rgb(0%,0%,0%);stroke-opacity:1;stroke-miterlimit:10;" d="M 91.046875 139.855469 L 113.132812 154.601562 "/>
<path style="fill:none;stroke-width:1.2;stroke-linecap:butt;stroke-linejoin:miter;stroke:rgb(0%,0%,0%);stroke-opacity:1;stroke-miterlimit:10;" d="M 120.230469 149.949219 L 118.070312 183.074219 "/>
<path style="fill:none;stroke-width:1.2;stroke-linecap:butt;stroke-linejoin:miter;stroke:rgb(0%,0%,0%);stroke-opacity:1;stroke-miterlimit:10;" d="M 120.230469 149.949219 L 135.117188 142.605469 "/>
<path style="fill:none;stroke-width:1.2;stroke-linecap:butt;stroke-linejoin:miter;stroke:rgb(80%,80%,0%);stroke-opacity:1;stroke-miterlimit:10;" d="M 135.117188 142.605469 L 150 135.261719 "/>
<path style="fill:none;stroke-width:1.2;stroke-linecap:butt;stroke-linejoin:miter;stroke:rgb(0%,0%,0%);stroke-opacity:1;stroke-miterlimit:10;" d="M 118.070312 183.074219 L 88.300781 197.765625 "/>
<path style="fill:none;stroke-width:1.2;stroke-linecap:butt;stroke-linejoin:miter;stroke:rgb(0%,0%,0%);stroke-opacity:1;stroke-miterlimit:10;" d="M 111.636719 177.539062 L 87.820312 189.292969 "/>
<path style="fill:none;stroke-width:1.2;stroke-linecap:butt;stroke-linejoin:miter;stroke:rgb(0%,0%,0%);stroke-opacity:1;stroke-miterlimit:10;" d="M 118.070312 183.074219 L 131.871094 192.292969 "/>
<path style="fill:none;stroke-width:1.2;stroke-linecap:butt;stroke-linejoin:miter;stroke:rgb(100%,0%,0%);stroke-opacity:1;stroke-miterlimit:10;" d="M 131.871094 192.292969 L 145.675781 201.511719 "/>
<path style="fill:none;stroke-width:1.2;stroke-linecap:butt;stroke-linejoin:miter;stroke:rgb(0%,0%,0%);stroke-opacity:1;stroke-miterlimit:10;" d="M 88.300781 197.765625 L 87.21875 214.328125 "/>
<path style="fill:none;stroke-width:1.2;stroke-linecap:butt;stroke-linejoin:miter;stroke:rgb(0%,80%,0%);stroke-opacity:1;stroke-miterlimit:10;" d="M 87.21875 214.328125 L 86.136719 230.890625 "/>
<path style=" stroke:none;fill-rule:nonzero;fill:rgb(100%,100%,100%);fill-opacity:1;" d="M 79.136719 222.890625 L 93.136719 222.890625 L 93.136719 238.890625 L 79.136719 238.890625 Z M 79.136719 222.890625 "/>
<g style="fill:rgb(0%,80%,0%);fill-opacity:1;">
  <use xlink:href="#glyph0-1" x="79.136719" y="235.266602"/>
  <use xlink:href="#glyph0-2" x="88.443359" y="235.266602"/>
</g>
<path style=" stroke:none;fill-rule:nonzero;fill:rgb(100%,100%,100%);fill-opacity:1;" d="M 138.675781 192.011719 L 153.675781 192.011719 L 153.675781 211.011719 L 138.675781 211.011719 Z M 138.675781 192.011719 "/>
<g style="fill:rgb(100%,0%,0%);fill-opacity:1;">
  <use xlink:href="#glyph0-3" x="138.675781" y="207.207031"/>
</g>
<g style="fill:rgb(100%,0%,0%);fill-opacity:1;">
  <use xlink:href="#glyph1-1" x="149.166016" y="202.324219"/>
</g>
<path style="fill:none;stroke-width:1.2;stroke-linecap:butt;stroke-linejoin:miter;stroke:rgb(80%,80%,0%);stroke-opacity:1;stroke-miterlimit:10;" d="M 150 135.261719 L 163.804688 144.476562 "/>
<path style="fill:none;stroke-width:1.2;stroke-linecap:butt;stroke-linejoin:miter;stroke:rgb(0%,0%,0%);stroke-opacity:1;stroke-miterlimit:10;" d="M 163.804688 144.476562 L 177.605469 153.695312 "/>
<path style=" stroke:none;fill-rule:nonzero;fill:rgb(100%,100%,100%);fill-opacity:1;" d="M 146 127.261719 L 155 127.261719 L 155 143.261719 L 146 143.261719 Z M 146 127.261719 "/>
<g style="fill:rgb(80%,80%,0%);fill-opacity:1;">
  <use xlink:href="#glyph0-4" x="146" y="139.637695"/>
</g>
<path style="fill:none;stroke-width:1.2;stroke-linecap:butt;stroke-linejoin:miter;stroke:rgb(0%,0%,0%);stroke-opacity:1;stroke-miterlimit:10;" d="M 177.605469 153.695312 L 175.445312 186.820312 "/>
<path style="fill:none;stroke-width:1.2;stroke-linecap:butt;stroke-linejoin:miter;stroke:rgb(0%,0%,0%);stroke-opacity:1;stroke-miterlimit:10;" d="M 185.183594 157.515625 L 183.453125 184.015625 "/>
<path style="fill:none;stroke-width:1.2;stroke-linecap:butt;stroke-linejoin:miter;stroke:rgb(0%,0%,0%);stroke-opacity:1;stroke-miterlimit:10;" d="M 207.375 139.003906 L 177.605469 153.695312 "/>
<path style="fill:none;stroke-width:1.2;stroke-linecap:butt;stroke-linejoin:miter;stroke:rgb(0%,0%,0%);stroke-opacity:1;stroke-miterlimit:10;" d="M 175.445312 186.820312 L 203.050781 205.257812 "/>
<path style="fill:none;stroke-width:1.2;stroke-linecap:butt;stroke-linejoin:miter;stroke:rgb(0%,0%,0%);stroke-opacity:1;stroke-miterlimit:10;" d="M 203.050781 205.257812 L 232.820312 190.566406 "/>
<path style="fill:none;stroke-width:1.2;stroke-linecap:butt;stroke-linejoin:miter;stroke:rgb(0%,0%,0%);stroke-opacity:1;stroke-miterlimit:10;" d="M 202.570312 196.78125 L 226.386719 185.03125 "/>
<path style="fill:none;stroke-width:1.2;stroke-linecap:butt;stroke-linejoin:miter;stroke:rgb(0%,0%,0%);stroke-opacity:1;stroke-miterlimit:10;" d="M 203.050781 205.257812 L 201.96875 221.820312 "/>
<path style="fill:none;stroke-width:1.2;stroke-linecap:butt;stroke-linejoin:miter;stroke:rgb(0%,80%,0%);stroke-opacity:1;stroke-miterlimit:10;" d="M 201.96875 221.820312 L 200.886719 238.382812 "/>
<path style="fill:none;stroke-width:1.2;stroke-linecap:butt;stroke-linejoin:miter;stroke:rgb(0%,0%,0%);stroke-opacity:1;stroke-miterlimit:10;" d="M 232.820312 190.566406 L 234.980469 157.441406 "/>
<path style="fill:none;stroke-width:1.2;stroke-linecap:butt;stroke-linejoin:miter;stroke:rgb(0%,0%,0%);stroke-opacity:1;stroke-miterlimit:10;" d="M 234.980469 157.441406 L 207.375 139.003906 "/>
<path style="fill:none;stroke-width:1.2;stroke-linecap:butt;stroke-linejoin:miter;stroke:rgb(0%,0%,0%);stroke-opacity:1;stroke-miterlimit:10;" d="M 227.882812 162.09375 L 205.796875 147.34375 "/>
<path style="fill:none;stroke-width:1.2;stroke-linecap:butt;stroke-linejoin:miter;stroke:rgb(0%,0%,0%);stroke-opacity:1;stroke-miterlimit:10;" d="M 234.980469 157.441406 L 249.867188 150.09375 "/>
<path style="fill:none;stroke-width:1.2;stroke-linecap:butt;stroke-linejoin:miter;stroke:rgb(0%,80%,0%);stroke-opacity:1;stroke-miterlimit:10;" d="M 249.867188 150.09375 L 264.75 142.75 "/>
<path style="fill:none;stroke-width:1.2;stroke-linecap:butt;stroke-linejoin:miter;stroke:rgb(0%,0%,0%);stroke-opacity:1;stroke-miterlimit:10;" d="M 207.375 139.003906 L 208.457031 122.441406 "/>
<path style="fill:none;stroke-width:1.2;stroke-linecap:butt;stroke-linejoin:miter;stroke:rgb(100%,0%,0%);stroke-opacity:1;stroke-miterlimit:10;" d="M 208.457031 122.441406 L 209.539062 105.878906 "/>
<path style=" stroke:none;fill-rule:nonzero;fill:rgb(100%,100%,100%);fill-opacity:1;" d="M 202.539062 96.378906 L 217.539062 96.378906 L 217.539062 115.378906 L 202.539062 115.378906 Z M 202.539062 96.378906 "/>
<g style="fill:rgb(100%,0%,0%);fill-opacity:1;">
  <use xlink:href="#glyph0-3" x="202.539062" y="111.574219"/>
</g>
<g style="fill:rgb(100%,0%,0%);fill-opacity:1;">
  <use xlink:href="#glyph1-1" x="213.029297" y="106.691406"/>
</g>
<path style=" stroke:none;fill-rule:nonzero;fill:rgb(100%,100%,100%);fill-opacity:1;" d="M 257.75 134.75 L 271.75 134.75 L 271.75 150.75 L 257.75 150.75 Z M 257.75 134.75 "/>
<g style="fill:rgb(0%,80%,0%);fill-opacity:1;">
  <use xlink:href="#glyph0-1" x="257.75" y="147.125977"/>
  <use xlink:href="#glyph0-2" x="267.056641" y="147.125977"/>
</g>
<path style=" stroke:none;fill-rule:nonzero;fill:rgb(100%,100%,100%);fill-opacity:1;" d="M 193.886719 230.382812 L 207.886719 230.382812 L 207.886719 246.382812 L 193.886719 246.382812 Z M 193.886719 230.382812 "/>
<g style="fill:rgb(0%,80%,0%);fill-opacity:1;">
  <use xlink:href="#glyph0-1" x="193.886719" y="242.758789"/>
  <use xlink:href="#glyph0-2" x="203.193359" y="242.758789"/>
</g>
<path style=" stroke:none;fill-rule:nonzero;fill:rgb(100%,100%,100%);fill-opacity:1;" d="M 21.25 119.769531 L 35.25 119.769531 L 35.25 135.769531 L 21.25 135.769531 Z M 21.25 119.769531 "/>
<g style="fill:rgb(0%,80%,0%);fill-opacity:1;">
  <use xlink:href="#glyph0-1" x="21.25" y="132.145508"/>
  <use xlink:href="#glyph0-2" x="30.556641" y="132.145508"/>
</g>
<path style=" stroke:none;fill-rule:nonzero;fill:rgb(100%,100%,100%);fill-opacity:1;" d="M 136.859375 74.25 L 164.859375 74.25 L 164.859375 93.25 L 136.859375 93.25 Z M 136.859375 74.25 "/>
<g style="fill:rgb(0%,0%,0%);fill-opacity:1;">
  <use xlink:href="#glyph0-5" x="136.859375" y="89.445312"/>
  <use xlink:href="#glyph0-6" x="146.829102" y="89.445312"/>
</g>
<g style="fill:rgb(0%,0%,0%);fill-opacity:1;">
  <use xlink:href="#glyph1-2" x="154.996094" y="84.5625"/>
</g>
<path style=" stroke:none;fill-rule:nonzero;fill:rgb(100%,100%,100%);fill-opacity:1;" d="M 136.859375 52.117188 L 164.859375 52.117188 L 164.859375 71.117188 L 136.859375 71.117188 Z M 136.859375 52.117188 "/>
<g style="fill:rgb(0%,0%,0%);fill-opacity:1;">
  <use xlink:href="#glyph0-5" x="136.859375" y="67.3125"/>
  <use xlink:href="#glyph0-6" x="146.829102" y="67.3125"/>
</g>
<g style="fill:rgb(0%,0%,0%);fill-opacity:1;">
  <use xlink:href="#glyph1-2" x="154.996094" y="62.429688"/>
</g>
</g>
</svg>

<svg xmlns="http://www.w3.org/2000/svg" xmlns:xlink="http://www.w3.org/1999/xlink" width="300pt" height="300pt" viewBox="0 0 300 300"><defs><symbol overflow="visible"><path d="M.64 2.297v-11.47h6.5v11.47zm.735-.72h5.047V-8.436H1.375zm0 0"/></symbol><symbol overflow="visible" id="a"><path d="M8.375-8.75v1.36c-.438-.407-.902-.708-1.39-.907-.48-.195-.997-.297-1.548-.297-1.085 0-1.917.336-2.5 1-.574.657-.86 1.61-.86 2.86 0 1.25.286 2.21.86 2.875.583.657 1.415.985 2.5.985.55 0 1.067-.098 1.547-.297.49-.195.954-.492 1.39-.89v1.328c-.448.312-.92.546-1.42.703-.5.143-1.032.217-1.595.217-1.438 0-2.57-.437-3.39-1.312C1.144-2.008.733-3.21.733-4.735c0-1.52.41-2.718 1.235-3.593.82-.883 1.952-1.328 3.39-1.328.562 0 1.093.078 1.593.234.508.15.984.37 1.422.672zm0 0"/></symbol><symbol overflow="visible" id="b"><path d="M1.22-9.875h1.17V0H1.22zm0 0"/></symbol><symbol overflow="visible" id="c"><path d="M5.125-8.61c-.938 0-1.684.352-2.234 1.047-.542.688-.812 1.633-.812 2.83 0 1.198.27 2.147.813 2.842.55.687 1.297 1.03 2.235 1.03.926 0 1.66-.343 2.203-1.03.55-.696.828-1.645.828-2.844 0-1.196-.277-2.14-.828-2.829-.543-.695-1.277-1.046-2.203-1.046zm0-1.046c1.32 0 2.38.45 3.172 1.344.8.898 1.203 2.09 1.203 3.578 0 1.5-.402 2.7-1.203 3.593C7.504-.255 6.445.186 5.125.186c-1.336 0-2.402-.44-3.203-1.328C1.13-2.036.734-3.235.734-4.735c0-1.49.395-2.68 1.188-3.579.8-.894 1.867-1.343 3.203-1.343zm0 0"/></symbol><symbol overflow="visible" id="e"><path d="M6.953-9.172v1.25c-.48-.226-.937-.398-1.375-.516-.43-.113-.844-.17-1.25-.17-.7 0-1.242.135-1.625.405-.375.273-.562.656-.562 1.156 0 .418.126.734.376.953.257.21.738.383 1.437.516l.78.156c.947.188 1.65.512 2.11.97.458.46.688 1.073.688 1.843 0 .92-.307 1.618-.92 2.094-.618.47-1.524.704-2.72.704-.45 0-.93-.055-1.437-.157C1.953-.07 1.43-.222.89-.42v-1.312c.52.293 1.032.51 1.532.656.5.148.988.22 1.47.22.737 0 1.303-.142 1.702-.423.394-.29.593-.704.593-1.236 0-.468-.148-.832-.437-1.093-.28-.257-.746-.456-1.39-.593l-.782-.156c-.96-.187-1.652-.484-2.078-.89-.43-.406-.64-.97-.64-1.688 0-.843.288-1.503.874-1.984.594-.488 1.41-.734 2.454-.734.437 0 .882.043 1.343.125.47.085.943.202 1.423.358zm0 0"/></symbol><symbol overflow="visible" id="f"><path d="M1.28-9.484H3l4.203 7.937v-7.937h1.25V0H6.72L2.515-7.922V0H1.28zm0 0"/></symbol><symbol overflow="visible" id="g"><path d="M4.453-3.578c-.937 0-1.59.11-1.953.328-.367.22-.547.59-.547 1.11 0 .406.133.734.406.984.27.242.64.36 1.11.36.643 0 1.163-.227 1.56-.688.396-.457.595-1.067.595-1.829v-.265zm2.328-.485V0H5.626v-1.078c-.273.43-.605.746-1 .953-.398.207-.887.313-1.47.313-.73 0-1.307-.204-1.733-.61-.43-.414-.64-.96-.64-1.64 0-.8.265-1.407.796-1.813.54-.406 1.344-.61 2.406-.61h1.64v-.124c0-.53-.18-.94-.53-1.234-.356-.3-.856-.453-1.5-.453-.406 0-.805.055-1.188.156-.386.093-.758.242-1.11.437V-6.78c.427-.165.845-.29 1.25-.376.407-.082.798-.125 1.173-.125 1.03 0 1.796.264 2.296.796.507.53.765 1.34.765 2.421zm0 0"/></symbol><symbol overflow="visible"><path d="M.547 1.938V-7.75h5.5v9.688zm.625-.61h4.266v-8.47H1.171zm0 0"/></symbol><symbol overflow="visible" id="d"><path d="M.53-3.453h2.907v.875H.53zm0 0"/></symbol><symbol overflow="visible" id="h"><path d="M5.063-6.89v2.984h2.984v.922H5.062V0h-.906v-2.984H1.172v-.922h2.984V-6.89zm0 0"/></symbol></defs><g><path fill="#fff" d="M0 0h300v300H0z"/><path d="M60.695 179.332l2.16-33.13M68.703 176.527l1.73-26.5M88.3 197.766l-27.605-18.434M62.855 146.203l29.77-14.687M62.855 146.203l-13.8-9.215" stroke-width="1.2" stroke="#000" stroke-miterlimit="10" fill="none"/><path d="M49.055 136.988L35.25 127.77" stroke-width="1.2" stroke="#0c0" stroke-miterlimit="10" fill="none"/><path d="M92.625 131.516l27.605 18.433M91.047 139.855l22.086 14.747M120.23 149.95l-2.16 33.124M120.23 149.95l14.887-7.345" stroke-width="1.2" stroke="#000" stroke-miterlimit="10" fill="none"/><path d="M135.117 142.605L150 135.262" stroke-width="1.2" stroke="#cc0" stroke-miterlimit="10" fill="none"/><path d="M118.07 183.074L88.3 197.766M111.637 177.54L87.82 189.292M118.07 183.074l13.8 9.22" stroke-width="1.2" stroke="#000" stroke-miterlimit="10" fill="none"/><path d="M131.87 192.293l13.806 9.22" stroke-width="1.2" stroke="#f00" stroke-miterlimit="10" fill="none"/><path d="M88.3 197.766l-1.08 16.562" stroke-width="1.2" stroke="#000" stroke-miterlimit="10" fill="none"/><path d="M87.22 214.328l-1.083 16.563" stroke-width="1.2" stroke="#0c0" stroke-miterlimit="10" fill="none"/><path d="M79.137 222.89h14v16h-14zm0 0" fill="#fff"/><g fill="#0c0"><use xlink:href="#a" x="79.137" y="235.267"/><use xlink:href="#b" x="88.443" y="235.267"/></g><path d="M138.676 192.012h15v19h-15zm0 0" fill="#fff"/><use xlink:href="#c" x="138.676" y="207.207" fill="#f00"/><use xlink:href="#d" x="149.166" y="202.324" fill="#f00"/><path d="M150 135.262l13.805 9.215" stroke-width="1.2" stroke="#cc0" stroke-miterlimit="10" fill="none"/><path d="M163.805 144.477l13.8 9.218" stroke-width="1.2" stroke="#000" stroke-miterlimit="10" fill="none"/><path d="M146 127.262h9v16h-9zm0 0" fill="#fff"/><use xlink:href="#e" x="146" y="139.638" fill="#cc0"/><path d="M177.605 153.695l-2.16 33.125M185.184 157.516l-1.73 26.5M207.375 139.004l-29.77 14.69M175.445 186.82l27.606 18.438M203.05 205.258l29.77-14.692M202.57 196.78l23.817-11.75M203.05 205.258l-1.08 16.562" stroke-width="1.2" stroke="#000" stroke-miterlimit="10" fill="none"/><path d="M201.97 221.82l-1.083 16.563" stroke-width="1.2" stroke="#0c0" stroke-miterlimit="10" fill="none"/><path d="M232.82 190.566l2.16-33.125M234.98 157.44l-27.605-18.436M227.883 162.094l-22.086-14.75M234.98 157.44l14.887-7.346" stroke-width="1.2" stroke="#000" stroke-miterlimit="10" fill="none"/><path d="M249.867 150.094l14.883-7.344" stroke-width="1.2" stroke="#0c0" stroke-miterlimit="10" fill="none"/><path d="M207.375 139.004l1.082-16.563" stroke-width="1.2" stroke="#000" stroke-miterlimit="10" fill="none"/><path d="M208.457 122.44l1.082-16.56" stroke-width="1.2" stroke="#f00" stroke-miterlimit="10" fill="none"/><path d="M202.54 96.38h15v19h-15zm0 0" fill="#fff"/><use xlink:href="#c" x="202.539" y="111.574" fill="#f00"/><use xlink:href="#d" x="213.029" y="106.691" fill="#f00"/><path d="M257.75 134.75h14v16h-14zm0 0" fill="#fff"/><g fill="#0c0"><use xlink:href="#a" x="257.75" y="147.126"/><use xlink:href="#b" x="267.057" y="147.126"/></g><path d="M193.887 230.383h14v16h-14zm0 0" fill="#fff"/><g fill="#0c0"><use xlink:href="#a" x="193.887" y="242.759"/><use xlink:href="#b" x="203.193" y="242.759"/></g><path d="M21.25 119.77h14v16h-14zm0 0" fill="#fff"/><g fill="#0c0"><use xlink:href="#a" x="21.25" y="132.146"/><use xlink:href="#b" x="30.557" y="132.146"/></g><path d="M136.86 74.25h28v19h-28zm0 0" fill="#fff"/><use xlink:href="#f" x="136.859" y="89.445"/><use xlink:href="#g" x="146.829" y="89.445"/><use xlink:href="#h" x="154.996" y="84.563"/><path d="M136.86 52.117h28v19h-28zm0 0" fill="#fff"/><use xlink:href="#f" x="136.859" y="67.313"/><use xlink:href="#g" x="146.829" y="67.313"/><use xlink:href="#h" x="154.996" y="62.43"/></g></svg>
